X:49
T: Fehér László lovat lopott
O: Doboz (Békés)
Q:"Parlando"
M:3/4
L:1/4
K:D
E/E/E/F/G/E/ | E<G z | 
B/B/c/B/B/E/ | G F z | 
c>B E/F/ | G/E/ E/ G z |
F/G/A/B/ | G/G/ F | E2 z | 

